X: 17561
T: Hiya Pal
R: jig
M: 6/8
K: Gmajor
M:5/8
D GA|:B2G A/B/c|d2B AG|A2G AB|G2G FG|
E2D cd|BGD E/F/G|A2G AB|A2G Bc|
d2B de|d2 B AG|A2G AB|G2G FG|
E2D cd|BGD E/F/G|A2G GF|1 G2 D GA:|2 G2 G FG||
|:E2D cd|BGD E/F/G|A2G AB|A2G AB|
cde dc|BAG GB|A2G AB|A2G Bc|
[1d2B de|d2 B AG|A2G AB|G2G FG|
E2D cd|BGD E/F/G|A2G GF|G2 G FG:|
[2 d2B gf|e2 c ag|f2d fa|g2G FG|
E2D cd|BGD E/F/G|A2G GF|G2 D GA||

